;FLAVOR:Marlin
;TIME:3472
;Filament used: 1.46148m
;Layer height: 0.2
;Generated with Cura_SteamEngine 3.2.1
M190 S45
M104 S210
M109 S210
M82 ;absolute extrusion mode
G28 ;Home
G1 Z15.0 F6000 ;Move the platform down 15mm
;Prime the extruder
G92 E0
G1 F200 E3
G92 E0
;LAYER_COUNT:7
;LAYER:0
M107
G0 F3600 X101.135 Y40.732 Z0.3
;TYPE:SKIRT
G1 F1500 X101.282 Y40.414 E0.01311
G1 X101.854 Y39.337 E0.05874
G1 X102.124 Y38.915 E0.07748
G1 X102.497 Y38.503 E0.09828
G1 X103.459 Y37.613 E0.14732
G1 X103.853 Y37.303 E0.16608
G1 X104.27 Y37.069 E0.18397
G1 X105.212 Y36.631 E0.22284
G1 X105.907 Y36.401 E0.25023
G1 X106.799 Y36.218 E0.2843
G1 X107.432 Y36.154 E0.30811
G1 X115.996 Y36.153 E0.62855
G1 X116.442 Y36.185 E0.64529
G1 X117.015 Y36.267 E0.66694
G1 X117.696 Y36.443 E0.69326
G1 X118.756 Y36.849 E0.73574
G1 X119.208 Y37.066 E0.7545
G1 X119.551 Y37.296 E0.76995
G1 X120.444 Y37.984 E0.81213
G1 X120.816 Y38.32 E0.83089
G1 X121.079 Y38.639 E0.84636
G1 X121.729 Y39.542 E0.88799
G1 X121.988 Y39.971 E0.90674
G1 X122.101 Y40.223 E0.91707
G1 X122.401 Y40.981 E0.94757
G1 X122.576 Y41.602 E0.97172
G1 X122.707 Y42.358 E1.00043
G1 X122.753 Y42.895 E1.02059
G1 X122.774 Y109.603 E3.51665
G1 X122.93 Y115.133 E3.72365
G1 X123.396 Y120.605 E3.92914
G1 X124.164 Y125.996 E4.1329
G1 X125.248 Y131.402 E4.3392
G1 X125.887 Y134.013 E4.43978
G1 X127.427 Y139.311 E4.64623
G1 X129.26 Y144.505 E4.85232
G1 X131.069 Y149.135 E5.03832
G1 X131.19 Y149.515 E5.05324
G1 X131.597 Y151.138 E5.11585
G1 X131.662 Y151.469 E5.12847
G1 X131.952 Y153.549 E5.20705
G1 X131.981 Y153.919 E5.22094
G1 X132.089 Y159.143 E5.41645
G1 X132.43 Y164.642 E5.62261
G1 X133.147 Y170.772 E5.85354
G1 X133.165 Y171.273 E5.8723
G1 X133.047 Y172.002 E5.89993
G1 X132.946 Y172.356 E5.91371
G1 X132.771 Y172.826 E5.93247
G1 X132.523 Y173.262 E5.95124
G1 X132.356 Y173.485 E5.96167
G1 X132.061 Y173.846 E5.97911
G1 X131.714 Y174.208 E5.99787
G1 X131.149 Y174.608 E6.02378
G1 X125.976 Y177.475 E6.24508
G1 X121.543 Y180.215 E6.44008
G1 X121.333 Y180.334 E6.44911
G1 X120.354 Y180.84 E6.49034
G1 X120.065 Y180.972 E6.50223
G1 X118.607 Y181.548 E6.56089
G1 X118.389 Y181.625 E6.56954
G1 X112.64 Y183.421 E6.79491
G1 X112.294 Y183.508 E6.80826
G1 X110.916 Y183.772 E6.86076
G1 X110.353 Y183.828 E6.88193
G1 X108.873 Y183.842 E6.93731
G1 X108.546 Y183.828 E6.94955
G1 X105.634 Y183.552 E7.059
G1 X105.439 Y183.527 E7.06636
G1 X102.604 Y183.079 E7.17375
G1 X102.266 Y183.007 E7.18669
G1 X100.449 Y182.511 E7.25716
G1 X100.222 Y182.439 E7.26607
G1 X98.838 Y181.946 E7.32105
G1 X98.57 Y181.837 E7.33187
G1 X96.496 Y180.875 E7.41742
G1 X96.134 Y180.677 E7.43286
G1 X95.385 Y180.202 E7.46604
G1 X95.052 Y179.959 E7.48147
G1 X94.431 Y179.44 E7.51175
G1 X94.065 Y179.079 E7.53099
G1 X89.418 Y173.685 E7.79739
G1 X88.041 Y172.21 E7.87289
G1 X87.729 Y171.818 E7.89164
G1 X87.55 Y171.516 E7.90477
G1 X87.199 Y170.842 E7.93321
G1 X87.004 Y170.38 E7.95197
G1 X86.884 Y169.893 E7.97074
G1 X86.851 Y169.609 E7.98144
G1 X86.838 Y169.425 E7.98834
G1 X86.842 Y168.923 E8.00712
G1 X86.953 Y168.332 E8.02962
G1 X88.72 Y162.194 E8.26862
G1 X89.977 Y156.79 E8.47622
G1 X90.955 Y151.754 E8.66818
G1 X91.046 Y151.399 E8.68189
G1 X91.4 Y150.288 E8.72552
G1 X91.49 Y150.041 E8.73536
G1 X94.175 Y143.545 E8.99837
G1 X95.984 Y138.323 E9.20516
G1 X96.941 Y135.101 E9.33092
G1 X98.306 Y129.759 E9.53723
G1 X98.869 Y127.081 E9.63962
G1 X99.768 Y121.683 E9.84439
G1 X100.36 Y116.258 E10.04858
G1 X100.646 Y110.761 E10.25455
G1 X100.696 Y42.875 E12.79468
G1 X100.77 Y42.196 E12.82024
G1 X100.988 Y41.211 E12.85799
G1 X101.135 Y40.732 E12.87673
G1 F2700 E8.37673
G0 F3600 X103.159 Y43.164
G0 X104.293 Y43.202
G0 X118.574 Y138.732
;TYPE:WALL-INNER
G1 F2700 E12.87673
G1 F1500 X118.8 Y138.638 E12.88589
G1 X118.838 Y138.622 E12.88744
G1 X119.236 Y138.455 E12.90359
G1 X119.525 Y138.333 E12.91532
G1 X119.272 Y138.539 E12.91748
G1 X118.927 Y138.798 E12.92803
G1 X118.914 Y138.808 E12.92865
G1 X118.882 Y138.832 E12.92992
G1 X118.716 Y138.944 E12.93555
G1 X118.664 Y138.979 E12.9379
G1 X118.425 Y139.125 E12.94838
G1 X118.202 Y139.246 E12.95787
G1 X118.046 Y139.32 E12.96433
G1 X117.861 Y139.392 E12.97176
G1 X117.689 Y139.443 E12.97847
G1 X116.815 Y139.64 E13.01199
G1 X116.666 Y141.302 E13.07443
G1 X118.579 Y142.132 E13.15246
G1 X119.724 Y142.661 E13.19965
G1 X120.264 Y142.926 E13.22216
G1 X120.815 Y143.212 E13.24539
G1 X121.359 Y143.507 E13.26855
G1 X122.115 Y143.949 E13.30131
G1 X122.581 Y144.252 E13.32211
G1 X123.039 Y144.573 E13.34304
G1 X123.462 Y144.9 E13.36304
G1 X123.873 Y145.249 E13.38322
G1 X124.312 Y145.662 E13.40577
G1 X124.685 Y146.048 E13.42586
G1 X125.043 Y146.469 E13.44654
G1 X125.216 Y146.687 E13.45695
G1 X125.573 Y147.189 E13.48
G1 X125.725 Y147.424 E13.49047
G1 X126.075 Y148.019 E13.5163
G1 X126.355 Y148.563 E13.53919
G1 X126.632 Y149.18 E13.5645
G1 X126.859 Y149.757 E13.5877
G1 X127.07 Y150.372 E13.61203
G1 X127.264 Y151.025 E13.63752
G1 X127.34 Y151.314 E13.6487
G1 X127.466 Y151.847 E13.66919
G1 X127.578 Y152.396 E13.69016
G1 X127.68 Y152.993 E13.71282
G1 X127.74 Y153.436 E13.72955
G1 X127.8 Y154.044 E13.75241
G1 X127.834 Y154.593 E13.77299
G1 X127.849 Y155.151 E13.79388
G1 X127.84 Y155.736 E13.81577
G1 X127.807 Y156.351 E13.83881
G1 X127.762 Y156.923 E13.86028
G1 X127.695 Y157.53 E13.88313
G1 X127.518 Y158.805 E13.9313
G1 X127.197 Y160.942 E14.01216
G1 X127.1 Y161.695 E14.04056
G1 X127.044 Y162.184 E14.05898
G1 X126.968 Y163.103 E14.09349
G1 X126.925 Y163.972 E14.12604
G1 X126.917 Y164.72 E14.15403
G1 X126.931 Y165.379 E14.1787
G1 X126.954 Y165.729 E14.19182
G1 X126.988 Y166.076 E14.20487
G1 X127.036 Y166.435 E14.21842
G1 X127.103 Y166.802 E14.23238
G1 X127.192 Y167.175 E14.24673
G1 X127.284 Y167.487 E14.2589
G1 X127.393 Y167.808 E14.27158
G1 X127.645 Y168.409 E14.29597
G1 X127.938 Y169.005 E14.32082
G1 X128.257 Y169.581 E14.34545
G1 X128.69 Y170.332 E14.37789
G1 X128.883 Y170.724 E14.39424
G1 X128.937 Y170.863 E14.39982
G1 X128.967 Y170.969 E14.40394
G1 X128.976 Y171.029 E14.40621
G1 X128.964 Y171.044 E14.40693
G1 X128.824 Y171.134 E14.41316
G1 X128.631 Y171.223 E14.42111
G1 X128.401 Y171.305 E14.43025
G1 X128.117 Y171.386 E14.4413
G1 X127.802 Y171.46 E14.4534
G1 X127.452 Y171.531 E14.46677
G1 X126.281 Y171.734 E14.51124
G1 X125.482 Y171.86 E14.5415
G1 X124.7 Y171.968 E14.57104
G1 X123.967 Y172.047 E14.59863
G1 X123.598 Y172.074 E14.61247
G1 X123.196 Y172.094 E14.62753
G1 X121.805 Y172.122 E14.67959
G1 X121.654 Y172.124 E14.68524
G1 X121.658 Y172.275 E14.68888
G1 X121.697 Y173.468 E14.73354
G1 X121.685 Y173.61 E14.73888
G1 X121.653 Y173.785 E14.74553
G1 X121.595 Y173.994 E14.75365
G1 X121.511 Y174.226 E14.76288
G1 X121.412 Y174.45 E14.77205
G1 X121.269 Y174.723 E14.78358
G1 X121.13 Y174.955 E14.7937
G1 X120.933 Y175.239 E14.80663
G1 X120.763 Y175.456 E14.81694
G1 X120.537 Y175.712 E14.82972
G1 X120.315 Y175.931 E14.84139
G1 X120.095 Y176.124 E14.85234
G1 X119.833 Y176.328 E14.86477
G1 X119.556 Y176.519 E14.87736
G1 X119.32 Y176.664 E14.88772
G1 X119.018 Y176.832 E14.90065
G1 X118.698 Y176.993 E14.91405
G1 X118.385 Y177.138 E14.92696
G1 X118.051 Y177.279 E14.94053
G1 X117.328 Y177.555 E14.96948
G1 X116.541 Y177.818 E15.00053
G1 X115.655 Y178.085 E15.03516
G1 X114.772 Y178.331 E15.06946
G1 X113.795 Y178.586 E15.10724
G1 X112.602 Y178.88 E15.15321
G1 X112.183 Y179.104 E15.17099
G1 X111.869 Y179.247 E15.1839
G1 X111.589 Y179.358 E15.19517
G1 X111.281 Y179.457 E15.20728
G1 X110.967 Y179.536 E15.21939
G1 X110.668 Y179.589 E15.23075
G1 X110.284 Y179.636 E15.24523
G1 X109.944 Y179.658 E15.25798
G1 X109.536 Y179.667 E15.27325
G1 X109.143 Y179.66 E15.28795
G1 X108.242 Y179.608 E15.32172
G1 X107.307 Y179.519 E15.35687
G1 X105.645 Y179.326 E15.41947
G1 X104.873 Y179.223 E15.44862
G1 X104.16 Y179.112 E15.47562
G1 X103.416 Y178.972 E15.50394
G1 X102.738 Y178.814 E15.52999
G1 X102.012 Y178.613 E15.55818
G1 X101.291 Y178.385 E15.58647
G1 X100.54 Y178.117 E15.61631
G1 X99.839 Y177.838 E15.64454
G1 X99.145 Y177.527 E15.673
G1 X98.516 Y177.212 E15.69932
G1 X98.209 Y177.038 E15.71252
G1 X97.816 Y176.792 E15.72987
G1 X97.578 Y176.625 E15.74075
G1 X97.404 Y176.486 E15.74908
G1 X97.234 Y176.333 E15.75764
G1 X97.106 Y176.199 E15.76458
G1 X97.025 Y176.097 E15.76945
G1 X96.889 Y175.88 E15.77903
G1 X96.809 Y175.721 E15.78569
G1 X96.736 Y175.544 E15.79286
G1 X96.626 Y175.225 E15.80548
G1 X96.571 Y175.021 E15.81339
G1 X96.514 Y174.747 E15.82386
G1 X96.492 Y174.577 E15.83027
G1 X96.48 Y174.318 E15.83998
G1 X96.49 Y174.075 E15.84908
G1 X96.528 Y173.829 E15.85839
G1 X96.584 Y173.607 E15.86696
G1 X96.669 Y173.359 E15.87677
G1 X96.768 Y173.137 E15.88586
G1 X96.898 Y172.889 E15.89634
G1 X97.018 Y172.698 E15.90478
G1 X97.165 Y172.496 E15.91413
G1 X97.276 Y172.365 E15.92055
G1 X97.88 Y171.731 E15.95332
G1 X97.236 Y170.32 E16.01135
G1 X95.871 Y170.376 E16.06247
G1 X95.305 Y170.368 E16.08365
G1 X94.682 Y170.331 E16.107
G1 X94.085 Y170.27 E16.12946
G1 X93.559 Y170.195 E16.14934
G1 X93.122 Y170.117 E16.16595
G1 X92.598 Y169.999 E16.18605
G1 X92.177 Y169.881 E16.20241
G1 X91.823 Y169.757 E16.21644
G1 X91.495 Y169.612 E16.22986
G1 X91.254 Y169.471 E16.24031
G1 X91.122 Y169.369 E16.24655
G1 X91.055 Y169.293 E16.25034
G1 X91.029 Y169.24 E16.25255
G1 X91.031 Y169.142 E16.25622
G1 X91.062 Y169.041 E16.26017
G1 X91.142 Y168.874 E16.2671
G1 X91.257 Y168.683 E16.27544
G1 X91.413 Y168.466 E16.28544
G1 X91.8 Y168.008 E16.30788
G1 X92.527 Y167.207 E16.34835
G1 X92.783 Y166.908 E16.36308
G1 X93.03 Y166.601 E16.37782
G1 X93.265 Y166.277 E16.3928
G1 X93.487 Y165.933 E16.40812
G1 X93.692 Y165.567 E16.42382
G1 X93.873 Y165.179 E16.43984
G1 X94.029 Y164.773 E16.45611
G1 X94.141 Y164.403 E16.47058
G1 X94.233 Y164.026 E16.4851
G1 X94.302 Y163.642 E16.4997
G1 X94.358 Y163.259 E16.51418
G1 X94.401 Y162.867 E16.52893
G1 X94.433 Y162.465 E16.54402
G1 X94.464 Y161.669 E16.57383
G1 X94.469 Y160.855 E16.60429
G1 X94.43 Y158.438 E16.69474
G1 X94.429 Y157.756 E16.72026
G1 X94.441 Y157.081 E16.74552
G1 X94.469 Y156.385 E16.77158
G1 X94.513 Y155.705 E16.79708
G1 X94.58 Y155.06 E16.82134
G1 X94.675 Y154.372 E16.84733
G1 X94.795 Y153.711 E16.87247
G1 X94.969 Y152.943 E16.90193
G1 X95.119 Y152.399 E16.92305
G1 X95.317 Y151.783 E16.94726
G1 X95.534 Y151.203 E16.97043
G1 X95.792 Y150.598 E16.99504
G1 X96.092 Y149.982 E17.02068
G1 X96.41 Y149.399 E17.04553
G1 X96.782 Y148.792 E17.07217
G1 X97.176 Y148.212 E17.0984
G1 X97.419 Y147.886 E17.11362
G1 X97.679 Y147.556 E17.12934
G1 X97.955 Y147.226 E17.14543
G1 X98.247 Y146.895 E17.16195
G1 X98.583 Y146.532 E17.18046
G1 X98.842 Y146.264 E17.1944
G1 X99.507 Y145.62 E17.22904
G1 X100.15 Y145.046 E17.26129
G1 X100.802 Y144.506 E17.29297
G1 X101.479 Y143.986 E17.32491
G1 X102.121 Y143.528 E17.35442
G1 X102.587 Y143.217 E17.37538
G1 X103.045 Y142.927 E17.39567
G1 X103.481 Y142.665 E17.4147
G1 X103.905 Y142.428 E17.43288
G1 X104.318 Y142.213 E17.4503
G1 X104.668 Y142.045 E17.46482
G1 X105.069 Y141.874 E17.48114
G1 X106.262 Y141.417 E17.52894
G1 X106.009 Y139.612 E17.59714
G1 X104.926 Y139.507 E17.63785
G1 X104.872 Y139.498 E17.6399
G1 X104.664 Y139.461 E17.6478
G1 X104.611 Y139.445 E17.64988
G1 X104.609 Y139.444 E17.64996
G1 X104.291 Y139.345 E17.66242
G1 X104.616 Y139.421 E17.66867
G1 X104.671 Y139.433
G1 X104.874 Y139.481
G1 X104.874 Y139.424 E17.67055
G1 X104.874 Y43.222 E21.2702
G1 X104.883 Y42.96 E21.28001
G1 X104.903 Y42.776 E21.28693
G1 X104.933 Y42.607 E21.29336
G1 X104.995 Y42.366 E21.30267
G1 X105.058 Y42.177 E21.31012
G1 X105.132 Y41.997 E21.3174
G1 X105.218 Y41.824 E21.32463
G1 X105.329 Y41.638 E21.33274
G1 X105.432 Y41.49 E21.33948
G1 X105.586 Y41.301 E21.34861
G1 X105.707 Y41.169 E21.35531
G1 X105.85 Y41.037 E21.36259
G1 X106.025 Y40.895 E21.37102
G1 X106.176 Y40.79 E21.3779
G1 X106.347 Y40.688 E21.38535
G1 X106.54 Y40.592 E21.39342
G1 X106.729 Y40.515 E21.40106
G1 X106.921 Y40.451 E21.40863
G1 X107.135 Y40.395 E21.41691
G1 X107.326 Y40.36 E21.42417
G1 X107.498 Y40.343 E21.43064
G1 X107.765 Y40.333 E21.44064
G1 X115.682 Y40.333 E21.73687
G1 X115.949 Y40.343 E21.74687
G1 X116.122 Y40.36 E21.75337
G1 X116.313 Y40.395 E21.76064
G1 X116.532 Y40.452 E21.76911
G1 X116.737 Y40.52 E21.77719
G1 X116.903 Y40.587 E21.78389
G1 X117.067 Y40.67 E21.79076
G1 X117.27 Y40.791 E21.79961
G1 X117.437 Y40.907 E21.80722
G1 X117.587 Y41.029 E21.81445
G1 X117.749 Y41.178 E21.82269
G1 X117.871 Y41.309 E21.82938
G1 X118.011 Y41.483 E21.83774
G1 X118.111 Y41.626 E21.84427
G1 X118.213 Y41.797 E21.85172
G1 X118.324 Y42.02 E21.86104
G1 X118.397 Y42.196 E21.86817
G1 X118.462 Y42.393 E21.87593
G1 X118.508 Y42.576 E21.88299
G1 X118.543 Y42.768 E21.8903
G1 X118.566 Y42.97 E21.8979
G1 X118.574 Y43.183 E21.90588
G1 X118.574 Y138.69 E25.47953
G1 X118.574 Y138.732 E25.4811
G0 F3600 X118.874 Y138.281
G1 F1500 X119.081 Y138.194 E25.4895
G1 X120.227 Y137.713 E25.536
G1 X120.782 Y137.48 E25.55853
G1 X120.915 Y137.424 E25.56393
G1 X120.808 Y137.542
G1 X120.38 Y137.965 E25.57785
G1 X120.289 Y138.055 E25.58264
G1 X119.743 Y138.543 E25.61004
G1 X119.462 Y138.772 E25.6236
G1 X119.062 Y139.072 E25.64231
G1 X118.821 Y139.235 E25.6532
G1 X118.576 Y139.385 E25.66395
G1 X118.345 Y139.51 E25.67378
G1 X118.155 Y139.6 E25.68164
G1 X117.96 Y139.676 E25.68947
G1 X117.764 Y139.734 E25.69712
G1 X117.094 Y139.885 E25.72282
G1 X116.984 Y141.113 E25.76895
G1 X118.705 Y141.86 E25.83915
G1 X119.856 Y142.392 E25.8866
G1 X120.402 Y142.66 E25.90936
G1 X120.958 Y142.948 E25.93279
G1 X121.502 Y143.243 E25.95594
G1 X122.279 Y143.697 E25.98962
G1 X122.745 Y144 E26.01041
G1 X123.223 Y144.336 E26.03228
G1 X123.656 Y144.671 E26.05276
G1 X124.079 Y145.03 E26.07352
G1 X124.518 Y145.443 E26.09607
G1 X124.914 Y145.854 E26.11743
G1 X125.272 Y146.275 E26.13811
G1 X125.451 Y146.501 E26.1489
G1 X125.825 Y147.026 E26.17301
G1 X125.984 Y147.272 E26.18397
G1 X126.334 Y147.867 E26.2098
G1 X126.629 Y148.44 E26.23392
G1 X126.906 Y149.057 E26.25923
G1 X127.143 Y149.66 E26.28347
G1 X127.358 Y150.287 E26.30827
G1 X127.552 Y150.94 E26.33376
G1 X127.632 Y151.245 E26.34556
G1 X127.76 Y151.787 E26.3664
G1 X127.874 Y152.345 E26.38771
G1 X127.976 Y152.942 E26.41037
G1 X128.038 Y153.406 E26.42789
G1 X128.099 Y154.014 E26.45075
G1 X128.134 Y154.585 E26.47215
G1 X128.149 Y155.156 E26.49353
G1 X128.14 Y155.752 E26.51583
G1 X128.107 Y156.367 E26.53888
G1 X128.06 Y156.956 E26.56099
G1 X127.992 Y157.571 E26.58414
G1 X127.815 Y158.85 E26.63245
G1 X127.494 Y160.983 E26.71316
G1 X127.398 Y161.731 E26.74138
G1 X127.343 Y162.213 E26.75953
G1 X127.267 Y163.123 E26.7937
G1 X127.225 Y163.981 E26.82584
G1 X127.217 Y164.718 E26.85342
G1 X127.231 Y165.366 E26.87767
G1 X127.253 Y165.705 E26.89038
G1 X127.286 Y166.042 E26.90306
G1 X127.332 Y166.388 E26.91612
G1 X127.397 Y166.74 E26.92951
G1 X127.482 Y167.098 E26.94328
G1 X127.57 Y167.396 E26.9549
G1 X127.674 Y167.702 E26.967
G1 X127.918 Y168.285 E26.99064
G1 X128.204 Y168.866 E27.01488
G1 X128.518 Y169.433 E27.03913
G1 X128.95 Y170.182 E27.07148
G1 X129.057 Y170.388 E27.08017
G1 X129.155 Y170.597 E27.0888
G1 X129.224 Y170.773 E27.09588
G1 X129.262 Y170.908 E27.10112
G1 X129.279 Y171.021 E27.1054
G1 X129.277 Y171.088 E27.10791
G1 X129.241 Y171.183 E27.11171
G1 X129.164 Y171.271 E27.11609
G1 X128.97 Y171.396 E27.12472
G1 X128.742 Y171.501 E27.13411
G1 X128.494 Y171.59 E27.14397
G1 X128.186 Y171.678 E27.15596
G1 X127.862 Y171.754 E27.16841
G1 X127.503 Y171.827 E27.18212
G1 X126.332 Y172.029 E27.22658
G1 X125.523 Y172.157 E27.25723
G1 X124.74 Y172.265 E27.2868
G1 X123.991 Y172.346 E27.31499
G1 X123.613 Y172.374 E27.32918
G1 X123.211 Y172.394 E27.34424
G1 X122.115 Y172.416 E27.38525
